templates/main/source/images/big/warranty.svg

<?xml version="1.0" encoding="utf-8"?>
<svg width="40px" height="40px" viewBox="0 0 40 40" version="1.1" xmlns:xlink="http://www.w3.org/1999/xlink" xmlns="http://www.w3.org/2000/svg">
  <desc>Created with Lunacy</desc>
  <g id="warranty-copy">
    <path d="M18.8235 0C29.2195 5.22458e-16 37.6471 8.42758 37.6471 18.8235C37.6471 29.2195 29.2195 37.6471 18.8235 37.6471C8.42758 37.6471 1.30614e-15 29.2195 0 18.8235C-1.30614e-15 8.42758 8.42758 1.8286e-15 18.8235 0Z" transform="translate(1.1764706 1.1764706)" id="Path" fill="#FFFFFF" stroke="none" />
    <path d="M0 20C0 31.0457 8.9543 40 20 40C25.3043 40 30.3914 37.8929 34.1421 34.1421C37.8929 30.3914 40 25.3043 40 20C40 8.9543 31.0457 0 20 0C8.9543 0 0 8.9543 0 20ZM2.35294 20C2.35294 10.2538 10.2538 2.35294 20 2.35294C24.6803 2.35294 29.1689 4.21218 32.4784 7.52165C35.7878 10.8311 37.6471 15.3197 37.6471 20C37.6471 29.7462 29.7462 37.6471 20 37.6471C10.2538 37.6471 2.35294 29.7462 2.35294 20Z" id="Shape" fill="#8C0014" fill-rule="evenodd" stroke="none" />
    <path d="M20 13.3786C20 15.3572 18.5046 17.9712 16.7346 19.0868L10.0001 23.3333L3.26538 19.0874C2.2949 18.4755 1.37643 17.4044 0.745874 16.1486C0.264838 15.1909 0 14.2074 0 13.3791L0 4.52798L9.99967 0L12.5856 1.17455L12.5894 1.17617L20 4.54062L20 13.3786ZM8.25205 14.748C8.37458 14.8585 8.53897 14.9202 8.70991 14.9199L8.70991 14.9193C8.88108 14.9195 9.04547 14.8576 9.16778 14.747L14.9668 9.51423C14.9707 9.5108 14.9745 9.50726 14.9784 9.50382C15.2345 9.26674 15.2345 8.88261 14.9785 8.64563C14.7224 8.40856 14.3071 8.40856 14.0509 8.64553L8.70991 13.4659L5.94907 10.9741C5.94743 10.9726 5.94568 10.9711 5.94393 10.9695C5.68335 10.7368 5.26812 10.7437 5.01661 10.9849C4.76511 11.2261 4.77265 11.6102 5.03323 11.8429L8.25205 14.748Z" transform="translate(10 8.333333)" id="Fill-1" fill="#8C0014" fill-rule="evenodd" stroke="none" />
  </g>
</svg>

<svg width="40" height="40" viewBox="0 0 40 40" xmlns:xlink="http://www.w3.org/1999/xlink" xmlns="http://www.w3.org/2000/svg"><g id="warranty-copy" stroke="none"><path d="M18.823 0C29.22 0 37.648 8.428 37.648 18.823c0 10.396-8.427 18.824-18.823 18.824S0 29.22 0 18.824 8.428 0 18.823 0z" transform="translate(1.176 1.176)" id="Path" fill="#FFF"/><path d="M0 20c0 11.046 8.954 20 20 20a20 20 0 0020-20C40 8.954 31.046 0 20 0S0 8.954 0 20zm2.353 0c0-9.746 7.9-17.647 17.647-17.647A17.647 17.647 0 0137.647 20c0 9.746-7.9 17.647-17.647 17.647-9.746 0-17.647-7.9-17.647-17.647z" id="Shape" fill="#8C0014" fill-rule="evenodd"/><path d="M20 13.379c0 1.978-1.495 4.592-3.265 5.708L10 23.333l-6.735-4.246c-.97-.611-1.889-1.683-2.52-2.938C.266 15.19 0 14.207 0 13.379V4.528L10 0l2.586 1.175.003.001L20 4.541v8.838zM8.252 14.748c.123.11.287.172.458.172a.682.682 0 00.458-.173l5.799-5.233.011-.01a.575.575 0 000-.858.694.694 0 00-.927 0l-5.341 4.82-2.76-2.492c-.003-.001-.004-.003-.006-.005a.694.694 0 00-.927.016.575.575 0 00.016.858l3.219 2.905z" transform="translate(10 8.333)" id="Fill-1" fill="#8C0014" fill-rule="evenodd"/></g></svg>
